X: 82
T: Song to Comfort a Child's Grief
N: Derived from pawnee82.krn
O: Oklahoma, U.S.A.
N: from Pawnee Music by Frances Densmore, 1926
Z: transcribed to **kern format by David Huron, August 2000
C: Skidi and Chaui Bands, 1919
L: 1/16
M: 2/4
Q: 1/4=88
K: D clef=bass
%%linebreak <none>
F [I:setbarnb 1]| 
F2> E2 E3 D | 
D2> D2D6E | 
E2> D2 D3 D | 
D2> A,2 A,3 A, | 
!tenuto!A,2> A,2 F,2 D,2 | 
D,2> D,2 D,3 A, | 
A,2> A,2F,4[M:3/4] | 
D,2< D,2 D,2 (3D, D, D,D,4[M:2/4] | 
D,8 | 
D,7 :|]  



